svgs/comic_geeks.svg

<svg width="192" height="192" viewBox="0 0 192 192" fill="none" xmlns="http://www.w3.org/2000/svg">
<path d="M58.7895 79.1377H49L80 56H142L138.084 59.5924M58.7895 79.1377V136.5H111.163M58.7895 79.1377H111.163M111.163 136.5V79.1377M111.163 136.5L138.084 109.988V59.5924M111.163 79.1377H116.78L138.084 59.5924" stroke="black" stroke-width="12" stroke-linecap="round" stroke-linejoin="round"/>
<path d="M74.4737 96.491H96.0105" stroke="black" stroke-width="6" stroke-linecap="round" stroke-linejoin="round"/>
<path d="M170 96C170 136.869 136.869 170 96 170C55.1309 170 22 136.869 22 96C22 55.1309 55.1309 22 96 22C136.869 22 170 55.1309 170 96Z" stroke="black" stroke-width="12"/>
</svg>

<svg xmlns="http://www.w3.org/2000/svg" width="192" height="192" fill="none" viewBox="0 0 192 192"><path stroke="#000" stroke-linecap="round" stroke-linejoin="round" stroke-width="12" d="M58.79 79.138H49L80 56h62l-3.916 3.592M58.79 79.138V136.5h52.373M58.79 79.138h52.373m0 57.362V79.138m0 57.362 26.921-26.512V59.592m-26.921 19.546h5.617l21.304-19.546"/><path stroke="#000" stroke-linecap="round" stroke-linejoin="round" stroke-width="6" d="M74.474 96.491H96.01"/><path stroke="#000" stroke-width="12" d="M170 96c0 40.869-33.131 74-74 74-40.87 0-74-33.131-74-74 0-40.87 33.13-74 74-74 40.869 0 74 33.13 74 74Z"/></svg>
